X:12
T:Mangersta Beach
C:Aidan O'Rourke
S:Aidon O'Rource - Sirius
Z:robin.beech@mcgill.ca
R:air
M:4/4
L:1/8
K:Bdor
AB | cEAc B2AA-| ABc2 cAag | f2ef e2fa | B2AB c2AB  |
cEAc B2AA- | ABc2 cAag | f2ec B2AB | cEAB F4- | F2  :|
FEF | B2AB c2aa- | aggf feef | B2AB BcEA- | AB/A/G A F2EF |
BABc AEGA- | AB/A/GA FEFA | dcAE- EFAB | cEAB F4- | F2 :|
